img/icons/q.svg

<svg width="32" height="32" viewBox="0 0 32 32" fill="none" xmlns="http://www.w3.org/2000/svg">
<path fill-rule="evenodd" clip-rule="evenodd" d="M16 8.33337C16.5523 8.33337 17 8.78109 17 9.33337V17.3334C17 17.8857 16.5523 18.3334 16 18.3334C15.4477 18.3334 15 17.8857 15 17.3334V9.33337C15 8.78109 15.4477 8.33337 16 8.33337Z" fill="#FE7300"/>
<path fill-rule="evenodd" clip-rule="evenodd" d="M16.6823 21.9219C17.0928 22.2913 17.1261 22.9236 16.7566 23.3341L16.7433 23.3489C16.3738 23.7595 15.7416 23.7927 15.331 23.4233C14.9205 23.0538 14.8873 22.4215 15.2567 22.011L15.27 21.9962C15.6395 21.5857 16.2718 21.5524 16.6823 21.9219Z" fill="#FE7300"/>
<path fill-rule="evenodd" clip-rule="evenodd" d="M15.9993 3.66663C9.18784 3.66663 3.66602 9.18845 3.66602 16C3.66602 22.8115 9.18784 28.3333 15.9993 28.3333C22.8109 28.3333 28.3327 22.8115 28.3327 16C28.3327 9.18845 22.8109 3.66663 15.9993 3.66663ZM1.66602 16C1.66602 8.08388 8.08327 1.66663 15.9993 1.66663C23.9154 1.66663 30.3327 8.08388 30.3327 16C30.3327 23.916 23.9154 30.3333 15.9993 30.3333C8.08327 30.3333 1.66602 23.916 1.66602 16Z" fill="#FE7300"/>
</svg>

<svg width="32" height="32" fill="none" xmlns="http://www.w3.org/2000/svg"><path fill-rule="evenodd" clip-rule="evenodd" d="M16 8.333a1 1 0 011 1v8a1 1 0 11-2 0v-8a1 1 0 011-1zm.682 13.589a1 1 0 01.075 1.412l-.014.015a1 1 0 11-1.486-1.338l.013-.015a1 1 0 011.412-.074z" fill="#FE7300"/><path fill-rule="evenodd" clip-rule="evenodd" d="M16 3.667C9.187 3.667 3.665 9.188 3.665 16c0 6.811 5.522 12.333 12.333 12.333 6.812 0 12.334-5.521 12.334-12.333S22.81 3.667 15.999 3.667zM1.665 16c0-7.916 6.417-14.333 14.333-14.333S30.333 8.084 30.333 16s-6.418 14.333-14.334 14.333C8.083 30.333 1.666 23.916 1.666 16z" fill="#FE7300"/></svg>
